X:1
T: Connie's Jig
C:Muriel A Johnstone
R:Jig
%Q:180
K:D
M:6/8
L:1/16
|:A2|f4f2 f2a2f2|g2d2B2 G2B2d2|A6 f4d2|e2f2d2 c2B2A2|f4f2 f2a2f2|g2d2B2 G2B2d2|A2a2g2 f2e2d2|A2B2c2 d2e2f2|
g4g2 g2d2B2|f2d2A2 A2G2F2|E4E2 G2F2E2|F2A2d2 d2e2f2|g4g2 g2d2B2|f2d2A2 F2G2A2|E2g2f2 ea3c2|d3ed2 d2e2f2|
g4g2 g2d2B2|g2d2B2 A2G2F2|E4E2 E2D2C2|D2F2A2 d4A2|B2g2B2 c2a2c2|d2b2a2 g2f2e2|fa3A2 b2a2g2|f2g2e2 d4:|
